styles/5/Numix/64/places/pink-folder-move.svg

<?xml version="1.0" encoding="UTF-8" standalone="no"?>
<svg
   xmlns:dc="http://purl.org/dc/elements/1.1/"
   xmlns:cc="http://creativecommons.org/ns#"
   xmlns:rdf="http://www.w3.org/1999/02/22-rdf-syntax-ns#"
   xmlns:svg="http://www.w3.org/2000/svg"
   xmlns="http://www.w3.org/2000/svg"
   xmlns:sodipodi="http://sodipodi.sourceforge.net/DTD/sodipodi-0.dtd"
   xmlns:inkscape="http://www.inkscape.org/namespaces/inkscape"
   viewBox="0 0 64 64"
   id="svg2"
   version="1.1"
   inkscape:version="0.91 r13725"
   sodipodi:docname="blue-folder-move.svg">
  <metadata
     id="metadata28">
    <rdf:RDF>
      <cc:Work
         rdf:about="">
        <dc:format>image/svg+xml</dc:format>
        <dc:type
           rdf:resource="http://purl.org/dc/dcmitype/StillImage" />
      </cc:Work>
    </rdf:RDF>
  </metadata>
  <defs
     id="defs26" />
  <sodipodi:namedview
     pagecolor="#ffffff"
     bordercolor="#666666"
     borderopacity="1"
     objecttolerance="10"
     gridtolerance="10"
     guidetolerance="10"
     inkscape:pageopacity="0"
     inkscape:pageshadow="2"
     inkscape:window-width="722"
     inkscape:window-height="480"
     id="namedview24"
     showgrid="false"
     inkscape:zoom="3.6875"
     inkscape:cx="32"
     inkscape:cy="32"
     inkscape:window-x="10"
     inkscape:window-y="34"
     inkscape:window-maximized="0"
     inkscape:current-layer="svg2" />
  <rect
     ry="4.3740001"
     rx="3.914"
     y="11.99567"
     x="4"
     height="24"
     width="36"
     style="fill:#ec407a;fill-opacity:1;stroke:none"
     id="rect8" />
  <path
     d="m 7.914,11.9957 c -2.168,0 -3.914,2.23 -3.914,5 l 0,2 c 0,-2.77 1.746,-5 3.914,-5 l 28.18,0 c 2.168,0 3.914,2.23 3.914,5 l 0,-2 c 0,-2.77 -1.746,-5 -3.914,-5 z"
     style="opacity:0.1;fill:#ffffff;fill-opacity:1;stroke:none"
     id="path10"
     inkscape:connector-curvature="0" />
  <path
     d="m 7.914,17.9957 6.26,0 c 8.608,-0.888 7.044,-10 12.522,-10 l 9.392,0 c 2.168,0 3.914,1.982 3.914,4.444 l 0,19.112 c 0,2.462 -1.746,4.444 -3.914,4.444 l -28.18,0 c -2.168,0 -3.914,-1.982 -3.914,-4.444 l 0,-8.444 c 0,-2.666 1.566,-5.112 3.914,-5.112 z"
     style="fill:#f06292;fill-opacity:1;stroke:none"
     id="path12"
     inkscape:connector-curvature="0" />
  <path
     d="m 4,29.7757 0,1.778 c 0,2.462 1.746,4.444 3.914,4.444 l 28.18,0 c 2.168,0 3.914,-1.982 3.914,-4.444 l 0,-1.778 c 0,2.462 -1.746,4.222 -3.914,4.222 l -28.18,0 C 5.746,33.9977 4,32.2377 4,29.7757 Z"
     style="opacity:0.075;fill:#000000;fill-opacity:1;stroke:none"
     id="path14"
     inkscape:connector-curvature="0" />
  <path
     style="fill:#ffffff;fill-opacity:1;stroke:none;opacity:0.5"
     d="M 26.695312 7.9960938 C 24.219064 7.9960938 23.176669 9.8735521 21.988281 11.996094 L 7.9140625 11.996094 C 7.6992715 11.996094 7.4903755 12.024272 7.2851562 12.066406 C 5.4197587 12.402493 4 14.186787 4 16.369141 L 4 16.996094 L 4 18.996094 L 4 23.027344 C 3.999677 23.054405 3.9941406 23.080313 3.9941406 23.107422 L 3.9941406 31.550781 C 3.9941406 31.573526 3.999703 31.594526 4 31.617188 L 4 31.621094 C 4 31.722743 4.0212978 31.818091 4.0273438 31.917969 C 4.0403826 32.097502 4.0450379 32.280398 4.0761719 32.453125 C 4.3237417 33.899887 5.1986692 35.088733 6.3808594 35.648438 C 6.5145896 35.711752 6.6598326 35.748257 6.8007812 35.794922 C 6.9069139 35.830421 7.0074557 35.880882 7.1171875 35.90625 C 7.3742922 35.96617 7.6409122 35.998047 7.9140625 35.998047 L 36.09375 35.998047 C 36.632964 35.998047 37.146646 35.874445 37.613281 35.652344 C 37.699236 35.611432 37.774748 35.551425 37.857422 35.503906 C 38.908342 34.905998 39.687069 33.810418 39.921875 32.476562 C 39.977001 32.178528 40.007812 31.869914 40.007812 31.552734 L 40.007812 29.775391 C 40.007812 29.798388 40.002257 29.818923 40.001953 29.841797 L 40.001953 18.919922 C 40.002262 18.945943 40.007812 18.969975 40.007812 18.996094 L 40.007812 16.996094 C 40.007812 16.969975 40.002262 16.945943 40.001953 16.919922 L 40.001953 12.439453 C 40.001953 9.9774531 38.255891 7.9960938 36.087891 7.9960938 L 26.695312 7.9960938 z "
     id="rect4167" />
  <rect
     id="rect16"
     style="fill:#ec407a;fill-opacity:1;stroke:none"
     ry="4.375"
     rx="3.9130001"
     y="31.997786"
     x="24"
     height="24"
     width="36" />
  <path
     inkscape:connector-curvature="0"
     id="path18"
     style="opacity:0.2;fill:#ffffff;fill-opacity:1;stroke:none"
     d="m 27.913,31.9978 c -2.168,0 -3.913,2.23 -3.913,5 l 0,2 c 0,-2.77 1.745,-5 3.913,-5 l 28.17,0 c 2.168,0 3.913,2.23 3.913,5 l 0,-2 c 0,-2.77 -1.745,-5 -3.913,-5 z" />
  <path
     inkscape:connector-curvature="0"
     id="path20"
     style="fill:#f06292;fill-opacity:1;stroke:none"
     d="m 27.913,37.9978 6.261,0 c 8.609,-0.889 7.04,-10 12.522,-10 l 9.391,0 c 2.168,0 3.913,1.982 3.913,4.444 l 0,19.11 c 0,2.462 -1.745,4.444 -3.913,4.444 l -28.17,0 c -2.168,0 -3.913,-1.982 -3.913,-4.444 l 0,-8.444 c 0,-2.667 1.565,-5.111 3.913,-5.111 z" />
  <path
     inkscape:connector-curvature="0"
     id="path22"
     style="opacity:0.15;fill:#000000;fill-opacity:1;stroke:none"
     d="m 24,49.7778 0,1.778 c 0,2.462 1.745,4.444 3.913,4.444 l 28.17,0 c 2.168,0 3.913,-1.982 3.913,-4.444 l 0,-1.778 c 0,2.462 -1.745,4.222 -3.913,4.222 l -28.17,0 c -2.168,0 -3.913,-1.76 -3.913,-4.222 z" />
</svg>

<svg viewBox="0 0 64 64" xmlns="http://www.w3.org/2000/svg">
 <rect ry="4.374" y="11.996" rx="3.914" x="4" style="fill:#ec407a;fill-opacity:1;stroke:none" height="24" width="36"/>
 <path style="fill:#fff;opacity:0.1;fill-opacity:1;stroke:none" d="m 7.914 11.996 c -2.168 0 -3.914 2.23 -3.914 5 l 0 2 c 0 -2.77 1.746 -5 3.914 -5 l 28.18 0 c 2.168 0 3.914 2.23 3.914 5 l 0 -2 c 0 -2.77 -1.746 -5 -3.914 -5 z"/>
 <path style="fill:#f06292;fill-opacity:1;stroke:none" d="m 7.914 17.996 6.26 0 c 8.608 -0.888 7.04 -10 12.522 -10 l 9.392 0 c 2.168 0 3.914 1.982 3.914 4.444 l 0 19.11 c 0 2.462 -1.746 4.444 -3.914 4.444 l -28.18 0 c -2.168 0 -3.914 -1.982 -3.914 -4.444 l 0 -8.444 c 0 -2.666 1.566 -5.112 3.914 -5.112 z"/>
 <path style="fill:#000;opacity:0.075;fill-opacity:1;stroke:none" d="m 4,29.7757 0,1.778 c 0,2.462 1.746,4.444 3.914,4.444 l 28.18,0 c 2.168,0 3.914,-1.982 3.914,-4.444 l 0,-1.778 c 0,2.462 -1.746,4.222 -3.914,4.222 l -28.18,0 C 5.746,33.9977 4,32.2377 4,29.7757 Z"/>
 <path style="fill:#fff;opacity:0.5;fill-opacity:1;stroke:none" d="m 26.695 7.996 c -2.476 0 -3.519 1.877 -4.707 4 l -14.07 0 c -0.215 0 -0.424 0.028 -0.629 0.07 c -1.865 0.336 -3.285 2.12 -3.285 4.303 l 0 0.627 l 0 2 l 0 4.03 c 0 0.027 -0.006 0.053 -0.006 0.08 l 0 8.443 c 0 0.023 0.006 0.044 0.006 0.066 l 0 0.004 c 0 0.102 0.021 0.197 0.027 0.297 c 0.013 0.18 0.018 0.362 0.049 0.535 c 0.248 1.447 1.122 2.636 2.305 3.195 c 0.134 0.063 0.279 0.1 0.42 0.146 c 0.106 0.035 0.207 0.086 0.316 0.111 c 0.257 0.06 0.524 0.092 0.797 0.092 l 28.18 0 c 0.539 0 1.053 -0.124 1.52 -0.346 c 0.086 -0.041 0.161 -0.101 0.244 -0.148 c 1.051 -0.598 1.83 -1.693 2.064 -3.03 c 0.055 -0.298 0.086 -0.607 0.086 -0.924 l 0 -1.777 c 0 0.023 -0.006 0.044 -0.006 0.066 l 0 -10.922 c 0 0.026 0.006 0.05 0.006 0.076 l 0 -2 c 0 -0.026 -0.006 -0.05 -0.006 -0.076 l 0 -4.48 c 0 -2.462 -1.746 -4.443 -3.914 -4.443 l -9.393 0 z"/>
 <rect ry="4.375" y="31.998" rx="3.913" x="24" style="fill:#ec407a;fill-opacity:1;stroke:none" height="24" width="36"/>
 <path style="fill:#fff;opacity:0.2;fill-opacity:1;stroke:none" d="m 27.913 31.998 c -2.168 0 -3.913 2.23 -3.913 5 l 0 2 c 0 -2.77 1.745 -5 3.913 -5 l 28.17 0 c 2.168 0 3.913 2.23 3.913 5 l 0 -2 c 0 -2.77 -1.745 -5 -3.913 -5 z"/>
 <path style="fill:#f06292;fill-opacity:1;stroke:none" d="m 27.913 37.998 6.261 0 c 8.609 -0.889 7.04 -10 12.522 -10 l 9.391 0 c 2.168 0 3.913 1.982 3.913 4.444 l 0 19.11 c 0 2.462 -1.745 4.444 -3.913 4.444 l -28.17 0 c -2.168 0 -3.913 -1.982 -3.913 -4.444 l 0 -8.444 c 0 -2.667 1.565 -5.111 3.913 -5.111 z"/>
 <path style="fill:#000;opacity:0.15;fill-opacity:1;stroke:none" d="m 24 49.778 0 1.778 c 0 2.462 1.745 4.444 3.913 4.444 l 28.17 0 c 2.168 0 3.913 -1.982 3.913 -4.444 l 0 -1.778 c 0 2.462 -1.745 4.222 -3.913 4.222 l -28.17 0 c -2.168 0 -3.913 -1.76 -3.913 -4.222 z"/>
</svg>
